!!!ONB: MCCC : ILB0176_04 : Extracted Monophonic Melody
!!!COM: Beethoven, Ludwig van
!!!OPR: Piano Sonata No.15
!!!OMV: 4
!!!SCT: Op.28
!!!ODT: 1801///
**kern
*thru
*staff1
*Ipiano
*clefG2
*k[f#c#]
*D:
*M6/8
*MM124
8aa[
=3
8aa]
8gg
8ff#
8ee
8ff#
8dd
=4
8b
8ee
8cc#
8dd
8r
8r
=5
2.r
=6
4r
8r
4r
8aa[
=7
8aa]
8gg
8ff#
8ee
8ff#
8dd
=8
8b
8ee
8cc#
8dd
8r
8dd
=9
4dd
8cc#
8aa
8rg
8cc#
=10
4ee
8dd
8aa
8re
8dd
=11
4dd
8cc#
8aa
8rg
8cc#
=12
4dd
8r
4r
8dd
=13
8.dd
16cc#
16b#
16cc#
8aa
8raa
8cc#
=14
8.ee
16dd
16cc#
16dd
8aa
8raa
8dd
=15
8.dd
16cc#
16b#
16cc#
8aa
8raa
8cc#
=16
4dd
8r
4r
16d
16A
=17
8r
16F#
16A
16d
16f#
8r
16e
16a
16cc#
16ee
=18
8r
16d
16f#
16b
16dd
8r
16cc#
16ff#
16aa
16ccc#
=19
8r
16B
16d
16g
16b
8r
16a
16dd
16ff#
16aa
=20
16gg
16a
16gg
16a
16ff#
16a
16ee
16dd
16cc#
16b
16a
16g
=21
8r
16F#
16A
16d
16f#
8r
16e
16a
16cc#
16ee
=22
8r
16d
16f#
16b
16dd
8r
16cc#
16ff#
16aa
16ccc#
=23
8r
16B
16e
16g#
16b
8r
16a
16dd#
16ff#
16aa
=24
8r
16G#
16B
16e
16g#
8r
16cc#
16ee
16aa
16ccc#
=25
8r
16B
16e
16g#
16b
8r
16a
16dd#
16ff#
16aa
=26
8r
16g#
16b
16ee
16gg#
8r
16e
16g#
16b
16ee
=27
8r
16B
16e
16g#
16b
8r
16G#
16B
16e
16g#
=28
4r
8r
4r
8ccc#
=29
4aa
8eee
4ccc#
8aa
=30
4ee
8ccc#
4aa
8ee
=31
4.ee[
4ee]
8ee
=32
4.ee[
8ee]
8rg
16bb#
16ccc#
=33
8aa
8r
16ddd#
16eee
8ccc#
16rb
16cc#
8aa
=34
8ee
16rb
16ee
8ccc#
8aa
8r
8ee
=35
[4.ee
4ee]
8ee
=36
4.ee[
4ee]
8aa
=37
4gg#
8bb
4aa
8ee
=38
4.ee[
4ee]
8aa
=39
4gg#
8bb
4aa
8aa
=40
4gg#
8bb
4aa
8aa#
=41
2.bb
=42
2.gg#
=43
16a
16cc#
16ee
16aa
16a
16aa
16g#
16gg#
16f#
16ff#
16e
16ee
=44
16f#
16ff#
16e
16ee
16d
16dd
16c#
16cc#
16d
16dd
16e
16ee
=45
16a
16cc#
16ee
16aa
16a
16aa
16g#
16gg#
16f#
16ff#
16e
16ee
=46
16f#
16ff#
16e
16ee
16d
16dd
16c#
16cc#
16d
16dd
16e
16ee
=47
16a
16cc#
16ee
16aa
16a
16aa
16g
16gg
16f#
16ff#
16e
16ee
=48
16d
16dd
16c#
16cc#
16B
16b
16A
16a
16G
16g
16F#
16f#
=49
4g
8r
4r
8r
=50
4g#
8r
4r
8r
=51
2.r
=52
2.r
=53
4r
8r
4r
8aa[
=54
8aa]
8gg
8ff#
8ee
8ff#
8dd
=55
8b
8ee
8cc#
4dd
8r
=56
8r
16r
16dd
16ff#
16f#
4a
8g
=57
8r
16r
16ddd#
16eee
16ee
4gg
8ff#
=58
8aa
8gg
8ff#
8ee
8ff#
8dd
=59
8b
8ee
8cc#
8dd
8rg
8dd
=60
4dd
8cc#
8aa
8rg
8cc#
=61
4ee
8dd
8aa
8re
8dd
=62
4dd
8cc#
8aa
8rg
8cc#
=63
4dd
8r
4r
8dd
=64
8.dd
16cc#
16b#
16cc#
8aa
8rg
8cc#
=65
8.ee
16dd
16cc#
16dd
8aa
8re
8dd
=66
8.dd
16cc#
16b#
16cc#
8aa
8rg
8cc#
=67
8dd
4r
4a
8f#
=68
4d
8dd
4d
8cc#
=69
4d
8cc
4d
8b
=70
4e
8a
4e
8g
=71
4f#
8a
8d
8dd
8dd
=72
4dd
8ddd
4dd
8ccc#
=73
4dd
8ccc
4dd
8bb
=74
4ee
8aa
4cc
8ff#
=75
4b
8gg
4ff
8ddd
=76
4ee
8ccc
4cc
8aa
=77
4b
8gg
4ff
8ddd
=78
4ee
8ccc
4cc
8aa
=79
4.gg
8gg
8ff#
8gg#
=80
[4.aa
8aa_
8aa]
8aa#
=81
4.bb[
8bb]
8ccc
8bb[
=82
8bb]
8aa
8gg#[
8gg#]
8aa
8gg
=83
8ff#
8gg
8aa
4.bb
=84
8bb
8aa
8bb
4.ccc#
=85
8ccc#
8bb
8ccc#
4ddd
8ddd[
=86
8ddd]
4ccc[
8ccc]
8ddd
8aa
=87
8bb
8f
8d#
4.e
=88
[4.cc
8cc]
8ee
8cc#
=89
4.dd
8dd
8ff
8dd#
=90
8ee
8cc
8b
8a
8dd
8cc
=91
[4.gg
8gg]
8ff#
8gg
=92
[4.aa
8aa]
8gg
8aa
=93
[4.bb
8bb]
8ccc
8bb-[
=94
8bb-]
8aa
8gg#[
8gg#]
8aa
8gg
=95
8ff
8F
8A
8d
8ff
8dd
=96
8cc#
8c#
8e
8g
8gg
8ee
=97
8dd
8d
8f
8a
8aa
8ff
=98
8ee-
8e-
8g
8b-
8bb-
8gg
=99
8ff#
8f#
8a
8cc
8ccc
8aa
=100
8gg
8ddd
8gg
8gg#
8ddd
8gg#
=101
16cc#
16ee
16aa
16ccc#
16a
16aa
16b
16bb
16cc#
16ccc#
16dd
16ddd
=102
16ee
16eee
16dd
16ddd
16cc#
16ccc#
16ff
16fff
16ee
16eee
16dd
16ddd
=103
16ee
16aa
16ccc#
16eee
16a
16aa
16b
16bb
16cc#
16ccc#
16dd
16ddd
=104
16ee
16eee
16dd
16ddd
16cc#
16ccc#
16ff
16fff
16ee
16eee
16dd
16ddd
=105
16ee
16aa
16ccc#
16eee
16a
16aa
16b
16bb
16cc#
16ccc#
16dd
16ddd
=106
16ee
16eee
16dd
16ddd
16cc#
16ccc#
16ff
16fff
16ee
16eee
16dd
16ddd
=107
16ee
16eee
16dd
16ddd
16cc#
16ccc#
16ff
16fff
16ee
16eee
16dd
16ddd
=108
16ee
16eee
16dd
16ddd
16cc#
16ccc#
16ff
16fff
16ee
16eee
16dd
16ddd
=109
16ccc#
16eee
16ddd
16ccc#
16bb
16aa
16gg#
16ff#
16ee
16dd
16cc#
16b
=110
16a
16ee
16dd
16cc#
16b
16a
16g#
16f#
16e
16d
16c#
16B
=111
16A
16e
16d
16c#
16B
16A
4.r
=112
8r
8c#
8e
8a
8cc#
8ee
=113
4.aa[
4aa]
8r
=114
2.r
=115
4r
8r
4r
8aa[
=116
8aa]
8gg
8ff#
8ee
8ff#
8dd
=117
8b
8ee
8cc#
4dd
8r
=118
16r
16dd
16ff#
16dd
16a
16f#
4a
8g
=119
16r
16ddd#
16eee
16ccc#
16gg
16ee
4gg
8ff#
=120
8aa
8gg
8ff#
8ee
8ff#
8dd
=121
8b
8ee
8cc#
8dd
8rg
[8dd
=122
4dd_
8dd]
8aa
8r
8cc#
=123
4ee
8dd
8aa
8r
[8dd
=124
4dd_
8dd]
8aa
8rg
8cc#
=125
4dd
8r
4r
[8dd
=126
8.dd_
16dd]
16b#
16cc#
8aa
8r
8cc#
=127
8.ee
16dd
16cc#
16dd
8aa
8re
8dd
=128
[8.dd
16dd]
16b#
16cc#
8aa
8rg
8cc#
=129
4dd
8r
4.r
=130
8r
16F#
16A
16d
16f#
8r
16e
16a
16cc#
16ee
=131
8r
16d
16f#
16b
16dd
8r
16cc#
16ff#
16aa
16ccc#
=132
8r
16B
16d
16g
16b
8r
16a
16dd
16ff#
16aa
=133
16gg
16a
16gg
16a
16ff#
16a
16ee
16dd
16cc#
16b
16a
16g
=134
8r
16F#
16A
16d
16f#
8r
16e
16a#
16cc#
16ee
=135
4.r
16A
16c
16cc
16ff#
16aa
16ccc
=136
8r
16B
16d
16g
16b
8r
16dd#
16aa
16bb
16ddd#
=137
8r
16e
16g
16b
16ee
8r
16dd
16ee
16bb
16ddd
=138
8r
16c#
16e
16a
16cc#
8r
16cc#
16ee
16gg
16ccc#
=139
8r
16d
16f#
16a
16dd
8r
16dd
16gg#
16bb
16ddd
=140
4.r
8r
16c#
16e
16g
16cc#
=141
4.r
8r
16d
16g#
16b
16dd
=142
8r
16c#
16e
16a
16cc#
8r
16A
16c#
16e
16a
=143
8r
16E
16A
16c#
16e
4.r
=144
4r
8r
4r
8ff#
=145
4dd
8aa
4ff#
8dd
=146
4a
8ff#
4dd
8a
=147
4.a[
4a]
8a
=148
4.a[
8a]
8re
16ee#
16ff#
=149
8dd
8r
16gg#
16aa
8ff#
16re
16f#
8dd
=150
8a
16r
16a
8ff#
8dd
8r
8a
=151
[4.a
4a]
8a
=152
4.a[
4a]
8dd
=153
4cc#
8ee
4dd
8a
=154
4.a[
4a]
8dd
=155
4cc#
8ee
4dd
8ff#
=156
4ee
8gg
4ff#
8ddd
=157
4ccc#
8eee
4ddd
8ddd#
=158
2.eee
=159
2.ccc#
=160
16dd
16ff#
16aa
16ddd
16dd
16ddd
16cc#
16ccc#
16b
16bb
16a
16aa
=161
16b
16bb
16a
16aa
16g
16gg
16f#
16ff#
16g
16gg
16a
16aa
=162
16dd
16ff#
16aa
16ddd
16dd
16ddd
16cc#
16ccc#
16b
16bb
16a
16aa
=163
16b
16bb
16a
16aa
16g
16gg
16f#
16ff#
16g
16gg
16a
16aa
=164
16dd
16ff#
16aa
16ddd
16dd
16ddd
16cc
16ccc
16b
16bb
16a
16aa
=165
16g
16gg
16f#
16ff#
16e
16ee
16d
16dd
16c
16cc
16B
16b
=166
4cc
8r
4r
8r
=167
4cc#
8r
4r
8r
=168
2.r
=169
8r
4dd
8r
4cc
=170
8r
4cc
8r
4b
=171
8r
4bb
8r
4aa
=172
8r
4aa
8r
4gg
=173
8r
4dd
8r
4cc
=174
8r
4cc
8r
4b
=175
8r
4b
8r
4a
=176
8r
4g#
8r
4g#
=177
4a
8a
4f#
8b
=178
4g
8cc#
4a
8dd
=179
4b
8ee
4cc#
8ff#
=180
4dd
8gg
4ee
8aa
=181
4ff#
8gg
4ee
8aa
=182
4ff#
8gg
4ee
8aa
=183
8ff#
8gg
8ee
8ff#
8dd
8ee
=184
8cc#
8dd
8b
8cc#
8a
8b
=185
8g
8a
8f#
8g
8e
8f#
=186
8d
8e
8c#
8d
8B
8c#
=187
4.r
8r
16r
16A
16c#
16e
=188
8g
8r
8r
4r
8r
=189
8r
16r
16A
16c#
16e
8g
16r
16a
16cc#
16ee
=190
8gg
8r
8r
4r
8r
=191
8r
16r
16a
16cc#
16ee
8gg
8r
8r
=192
8r
16r
16a
16cc#
16ee
4gg
16gg
16ff#
=193
16ee#
16ff#
16gg
16ff#
16ddd
16ff#
16aa
16gg
16ff#
16gg
16ddd
16gg
=194
16aa
16gg
16ff#
16gg
16eee
16gg
16gg
16ff#
16ee#
16ff#
16ddd
16ff#
=195
16ee
16dd
16cc#
16dd
16ddd
16dd
16cc#
16b
16a#
16b
16bb
16b
=196
16a
16g
16f#
16g
16gg
16g
16f#
16a
16dd
16ff#
16aa
16gg
=197
16gg
16ff#
16ee#
16ff#
16ddd
16ff#
16aa
16gg
16ff#
16gg
16ddd
16gg
=198
16aa
16gg
16ff#
16gg
16eee
16gg
16gg
16ff#
16ee#
16ff#
16ddd
16ff#
=199
16ee
16dd
16cc#
16dd
16ddd
16dd
16cc#
16b
16a#
16b
16bb
16b
=200
16a
16g
16f#
16g
16gg
16g
16f#
16a
16dd
16ff#
16aa
16ff#
=201
16ee
16dd
16cc#
16dd
16ddd
16dd
16cc#
16b
16a#
16b
16bb
16b
=202
16a
16g
16f#
16g
16gg
16g
16f#
16a
16dd
16ff#
16aa
16ff#
=203
16ee
16dd
16cc#
16dd
16ddd
16dd
16cc#
16b
16a#
16b
16bb
16b
=204
16a
16g
16f#
16g
16gg
16g
16f#
16a
16dd
16ff#
16aa
16f#
=205
16a
16g
16f#
16g
16gg
16g
16f#
16a
16dd
16ff#
16aa
16f#
=206
16a
16g
16cc#
16g
16ee
16cc#
16gg
16ee
16ccc#
16gg
16eee
16ccc#
=207
16ddd
16aa
16ff#
16ddd
16aa
16ff#
16dd
16aa
16ff#
16dd
16a
16ff#
=208
16dd
16a
16f#
16dd
16a
16f#
16d
16a
16f#
16d
16A
16F#
=209
4.r
4gg
8r
=210
4ff#
8r
4r
==
*-
